frontend/src/assets/icons/inbox-02.svg

<svg width="24" height="24" viewBox="0 0 24 24" fill="none" xmlns="http://www.w3.org/2000/svg">
<g id="inbox-02">
<path id="Icon" d="M2 12H5.88197C6.56717 12 7.19357 12.3871 7.5 13C7.80643 13.6129 8.43283 14 9.11803 14H14.882C15.5672 14 16.1936 13.6129 16.5 13C16.8064 12.3871 17.4328 12 18.118 12H22M2 12V8.8C2 7.11984 2 6.27976 2.32698 5.63803C2.6146 5.07354 3.07354 4.6146 3.63803 4.32698C4.27976 4 5.11984 4 6.8 4H17.2C18.8802 4 19.7202 4 20.362 4.32698C20.9265 4.6146 21.3854 5.07354 21.673 5.63803C22 6.27976 22 7.11984 22 8.8V12M2 12V15.2C2 16.8802 2 17.7202 2.32698 18.362C2.6146 18.9265 3.07354 19.3854 3.63803 19.673C4.27976 20 5.11984 20 6.8 20H17.2C18.8802 20 19.7202 20 20.362 19.673C20.9265 19.3854 21.3854 18.9265 21.673 18.362C22 17.7202 22 16.8802 22 15.2V12" stroke="black" stroke-width="2" stroke-linecap="round" stroke-linejoin="round"/>
</g>
</svg>

<svg xmlns="http://www.w3.org/2000/svg" width="24" height="24" fill="none" viewBox="0 0 24 24">
  <path stroke="#000" stroke-linecap="round" stroke-linejoin="round" stroke-width="2" d="M2 12h3.882c.685 0 1.312.387 1.618 1 .306.613.933 1 1.618 1h5.764c.685 0 1.312-.387 1.618-1 .306-.613.933-1 1.618-1H22M2 12V8.8c0-1.68 0-2.52.327-3.162a3 3 0 0 1 1.311-1.311C4.28 4 5.12 4 6.8 4h10.4c1.68 0 2.52 0 3.162.327a3 3 0 0 1 1.311 1.311C22 6.28 22 7.12 22 8.8V12M2 12v3.2c0 1.68 0 2.52.327 3.162a3 3 0 0 0 1.311 1.311C4.28 20 5.12 20 6.8 20h10.4c1.68 0 2.52 0 3.162-.327a3 3 0 0 0 1.311-1.311C22 17.72 22 16.88 22 15.2V12"/>
</svg>
